!!!COM:	Praetorius, Michael
!!!OTL:	Gott der Vater wohn uns bei
**kern	**kern	**kern	**kern
*ICvox	*ICvox	*ICvox	*ICvox
*I"Bassus	*I"Tenor	*I"Altus	*I"Diskantus
*clefF4	*clefGv2	*clefG2	*clefG2
*k[]	*k[]	*k[]	*k[]
*M2/2	*M2/2	*M2/2	*M2/2
!!Meter Interpreted, Nat Condit-Schultz, 2018, Free
*met(c)	*met(c)	*met(c)	*met(c)
2G	2G	2d	2g
2E	2B	2e	2g
2D	2d	2f#	2a
2G	2d	2g	2b
2C	2e	2g	2cc
2C	2e	2g	2cc
2.GG	2.d	2.g	2.b
=	=	=	=
4D	4d	4fn	4a
2C	2G	2e	2cc
2BB	2G	2d	2g
2C	2G	2c	2e
2AA	2A	1c	2f
2C	1G	.	2e
2GG	.	2B	2d
1C	1E	1G	1c
=	=	=	=
2C	2E	2A	2g
2E	2G	2c	2g
2D	2F#	2A	2a
2GG	2G	2d	2b
2C	2G	2e	2cc
2C	2G	2e	2cc
2.G	2.B	2.d	2.b
=	=	=	=
4D	4d	4f	4a
2C	2G	2e	2cc
2BB	2G	2d	2g
2C	2G	2c	2e
2AA	2A	1c	2f
2C	1G	.	2e
2GG	.	2B	2d
1C	1E	1G	1c
=	=	=	=
2AA	2E	2A	2c
2FF	2F	2A	2d
2.C	2.G	2.c	2.e
4BB	4G	4d	4g
2C	2c	2e	2g
2D	2A	2d	2f
2.AA	2.A	2.c	2.e
=	=	=	=
4A	4A	4c	4cc
2G	2d	2g	2b
2E	2e	2g	2cc
2.D	2.A	2.f	2.dd
4AA	2A	4e	4cc
4.BB	.	1d	2b
.	2G	.	.
8C	.	.	.
2D	.	.	2a
.	4F#	.	.
2.GG	2.G	2.B	2.g
=	=	=	=
4C	4G	4e	4g
2BB	2G	2d	2g
2AA	2E	2c	2cc
2GG	2G	2d	2b
2C	2G	2e	2g
1FF	4Fn	1c	2a
.	4G	.	.
.	2A	.	4g
.	.	.	4f
2.C	2.G	2.c	2.e
=	=	=	=
4AA	4A	4c	4e
2BB	2D	2G	2d
2C	4.G	2c	2e
.	8A	.	.
2.GG	2.B	2.d	2.g
4D	2A	4d	4f
8AAL	.	2c	2e
8BBJ	.	.	.
4C	4G	.	.
2GG	2G	2B	2d
1C	1E	1G	1c
=	=	=	=
2AA	2E	2A	2c
2FF	2F	2A	2d
2.C	2.G	2.c	2.e
4BB	4G	4d	4g
2C	2c	2e	2g
2D	2A	2d	2f
2.AA	2.A	2.c	2.e
=	=	=	=
4A	4A	4c	4cc
2G	2d	2g	2b
2E	2e	2g	2cc
2.D	2.A	2.f	2.dd
4AA	2A	4e	4cc
4.BB	.	1d	2b
.	2G	.	.
8C	.	.	.
2D	.	.	2a
.	4F#	.	.
2.GG	2.G	2.B	2.g
=	=	=	=
4C	4G	4e	4g
2BB	2G	2d	2g
2AA	2E	2c	2cc
2GG	2G	2d	2b
2C	2G	2e	2g
1FF	4Fn	1c	2a
.	4G	.	.
.	2A	.	4g
.	.	.	4f
2.C	2.G	2.c	2.e
=	=	=	=
4AA	4A	4c	4e
2BB	2D	2G	2d
2C	4.G	2c	2e
.	8A	.	.
2.GG	2.B	2.d	2.g
4D	2A	4d	4f
8AAL	.	2c	2e
8BBJ	.	.	.
4C	4G	.	.
2GG	2G	2B	2d
1C	1E	1G	1c
=	=	=	=
2F	2F	2A	2c
2D	2F	2B	2d
2.C	2.G	2.c	2.e
4GG	4d	4B	4g
2C	2c	2e	2g
2D	2A	2d	2f
2.AA	2.A	2.c	2.e
=	=	=	=
4E	4G	4B	4g
4G	4B	4d	4g
4C	4c	4e	4g
4GG	4B	2d	4g
8AAL	4A	.	4f
8BBJ	.	.	.
2C	2G	2c	2e
2FF	2A	1c	2f
2GG	2G	.	2e
2GG	2G	2B	2d
00C	00E	00G	00c
==	==	==	==
*-	*-	*-	*-
